svgs/sharp-solid/head-side-goggles.svg

<svg xmlns="http://www.w3.org/2000/svg" viewBox="0 0 512 512"><!--! Font Awesome Pro 6.6.0 by @fontawesome - https://fontawesome.com License - https://fontawesome.com/license (Commercial License) Copyright 2024 Fonticons, Inc. --><path d="M45.9 128C75.3 53.1 148.3 0 233.7 0L256 0c39.3 0 75.8 11.8 106.2 32L304 32c-61.9 0-112 50.1-112 112c0 17.2 3.9 33.5 10.8 48L32.2 192l-.2 0L0 192l0-64 32 0 13.9 0zM304 256l204.2 0 3.8 4.8 0 11.2 0 16 0 32-32 0-32 0 0 96 0 32-32 0-96 0 0 32 0 32-32 0-160 0-32 0 0-32 0-130.7-4.9-4.9c-32.5-32.5-52.8-75-57.8-120.3l192.4 0c20.2 19.8 47.9 32 78.4 32zm0-192l112 0 0 160-112 0c-44.2 0-80-35.8-80-80s35.8-80 80-80zM512 224l-64 0 0-160 64 0 0 160z"/></svg>

<svg xmlns="http://www.w3.org/2000/svg" viewBox="0 0 512 512"><!--! Font Awesome Pro 6.4.2 by @fontawesome - https://fontawesome.com License - https://fontawesome.com/license (Commercial License) Copyright 2023 Fonticons, Inc. --><path d="M45.9 128C75.3 53.1 148.3 0 233.7 0H256c39.3 0 75.8 11.8 106.2 32H304c-61.9 0-112 50.1-112 112c0 17.2 3.9 33.5 10.8 48H32.2 32 0V128H32 45.9zM304 256H508.2l3.8 4.8V272v16 32H480 448v96 32H416 320v32 32H288 128 96V480 349.3l-4.9-4.9c-32.5-32.5-52.8-75-57.8-120.3H225.6c20.2 19.8 47.9 32 78.4 32zm0-192H416V224H304c-44.2 0-80-35.8-80-80s35.8-80 80-80zM512 224H448V64h64V224z"/></svg>
